X:1
T:Lux Cœlestis, LM
T:Lux Cœlestis, LM
T:Henry Basford, before 1913
T:Public Domain Courtesy of the Cyber Hymnal™
C:Henry Basford, before 1913
Z:Public Domain
Z:Courtesy of the Cyber Hymnal™
%%score ( 1 2 ) ( 3 4 )
L:1/8
Q:1/4=105
M:4/4
K:Db
V:1 treble 
V:2 treble 
V:3 bass 
V:4 bass 
V:1
 [FA]2 [FA][FA] [DA]3 [DG] | [DF]2 [D=E]2 [DF]4 | [Fd]2 [Fc][FB] [EA]3 A | (Bd) (cB) A4 | %4
 [CE]2 [DF][DG] [DA]2 [DA]2 | B2 B2 [EB]4 | [Ec]2 [DB][CA] [DA]2 [Fd]2 | [EA]2 [GA]2 [FA]4 |] %8
V:2
 x8 | x8 | x7 A | =G2 G2 A4 | x8 | (=DE) (FG) x4 | x8 | x2 (DE) x4 |] %8
V:3
 [D,D]2 [D,D][D,C] [D,B,]3 [D,B,] | [D,A,]2 [D,B,]2 [D,A,]4 | [B,,B,]2 [C,=A,][D,B,] [E,C]3 [E,C] | %3
 (DF) (ED) [A,,C]4 | A,2 [F,A,][E,G,] [D,F,]2 [_C,F,]2 | (F,G,) (A,B,) [E,G,]4 | %6
 A,2 [G,A,][G,A,] [F,A,]2 A,2 | [A,C]2 (B,C) [D,D]4 |] %8
V:4
 x8 | x8 | x8 | E,2 E,2 x4 | (A,G,) x6 | B,,2 B,,2 x4 | A,2 x2 (D,F,) x2 | x2 A,,2 x4 |] %8

